svg/logo/moment_line.svg

<?xml version="1.0" encoding="UTF-8"?>
<svg width="24px" height="24px" viewBox="0 0 24 24" version="1.1" xmlns="http://www.w3.org/2000/svg" xmlns:xlink="http://www.w3.org/1999/xlink">
    <title>moment_line</title>
    <g id="页面-1" stroke="none" stroke-width="1" fill="none" fill-rule="evenodd">
        <g id="Logo" transform="translate(-288.000000, -96.000000)">
            <g id="moment_line" transform="translate(288.000000, 96.000000)">
                 <path d="M24,0 L24,24 L0,24 L0,0 L24,0 Z M12.5934901,23.257841 L12.5819402,23.2595131 L12.5108777,23.2950439 L12.4918791,23.2987469 L12.4918791,23.2987469 L12.4767152,23.2950439 L12.4056548,23.2595131 C12.3958229,23.2563662 12.3870493,23.2590235 12.3821421,23.2649074 L12.3780323,23.275831 L12.360941,23.7031097 L12.3658947,23.7234994 L12.3769048,23.7357139 L12.4804777,23.8096931 L12.4953491,23.8136134 L12.4953491,23.8136134 L12.5071152,23.8096931 L12.6106902,23.7357139 L12.6232938,23.7196733 L12.6232938,23.7196733 L12.6266527,23.7031097 L12.609561,23.275831 C12.6075724,23.2657013 12.6010112,23.2592993 12.5934901,23.257841 L12.5934901,23.257841 Z M12.8583906,23.1452862 L12.8445485,23.1473072 L12.6598443,23.2396597 L12.6498822,23.2499052 L12.6498822,23.2499052 L12.6471943,23.2611114 L12.6650943,23.6906389 L12.6699349,23.7034178 L12.6699349,23.7034178 L12.678386,23.7104931 L12.8793402,23.8032389 C12.8914285,23.8068999 12.9022333,23.8029875 12.9078286,23.7952264 L12.9118235,23.7811639 L12.8776777,23.1665331 C12.8752882,23.1545897 12.8674102,23.1470016 12.8583906,23.1452862 L12.8583906,23.1452862 Z M12.1430473,23.1473072 C12.1332178,23.1423925 12.1221763,23.1452606 12.1156365,23.1525954 L12.1099173,23.1665331 L12.0757714,23.7811639 C12.0751323,23.7926639 12.0828099,23.8018602 12.0926481,23.8045676 L12.108256,23.8032389 L12.3092106,23.7104931 L12.3186497,23.7024347 L12.3186497,23.7024347 L12.3225043,23.6906389 L12.340401,23.2611114 L12.337245,23.2485176 L12.337245,23.2485176 L12.3277531,23.2396597 L12.1430473,23.1473072 Z" id="MingCute" fill-rule="nonzero"></path>
                <path d="M12,2 C17.5228,2 22,6.47715 22,12 C22,17.5228 17.5228,22 12,22 C6.47715,22 2,17.5228 2,12 C2,6.47715 6.47715,2 12,2 Z M10.0001,15.4641 L10.0001,19.748 C10.6393,19.9125 11.3094,20 12,20 C13.4577,20 14.8244,19.6101 16.0014,18.9289 L10.0001,15.4641 Z M8.00009,12 L4.29001,14.1421 C4.82841,16.0841952 6.08094152,17.729329 7.74710137,18.777145 L8.00009,18.9298 L8.00009,12 Z M20,12 L14,15.464 L17.7083,17.605 C19.0582048,16.2303333 19.9155018,14.3701338 19.9940881,12.310418 L20,12 Z M11.9891,9.68436 L9.98916,10.8517 L10.0001,13.1673 L12.0109,14.3156 L14.0109,13.1483 L14,10.8327 L11.9891,9.68436 Z M6.29176,6.395 C4.87427,7.83843 4,9.81712 4,12 L10,8.53597 L6.29176,6.395 Z M16,5.07026 L16,11.9999 L19.71,9.85797 C19.1447,7.81877 17.7921,6.10691 16,5.07026 Z M12,4 C10.5423,4 9.17563,4.38988 7.99863,5.07105 L14,8.53595 L14,4.25203 C13.3608,4.08751 12.6906,4 12,4 Z" id="形状" fill="#09244B"></path>
            </g>
        </g>
    </g>
</svg>

<svg xmlns="http://www.w3.org/2000/svg" width="24" height="24"><g fill="none" fill-rule="evenodd"><path d="M24 0v24H0V0h24ZM12.593 23.258l-.011.002-.071.035-.02.004-.014-.004-.071-.035c-.01-.004-.019-.001-.024.005l-.004.01-.017.428.005.02.01.013.104.074.015.004.012-.004.104-.074.012-.016.004-.017-.017-.427c-.002-.01-.009-.017-.017-.018Zm.265-.113-.013.002-.185.093-.01.01-.003.011.018.43.005.012.008.007.201.093c.012.004.023 0 .029-.008l.004-.014-.034-.614c-.003-.012-.01-.02-.02-.022Zm-.715.002a.023.023 0 0 0-.027.006l-.006.014-.034.614c0 .012.007.02.017.024l.015-.002.201-.093.01-.008.004-.011.017-.43-.003-.012-.01-.01-.184-.092Z"/><path fill="#09244B" d="M12 2c5.523 0 10 4.477 10 10s-4.477 10-10 10S2 17.523 2 12 6.477 2 12 2Zm-2 13.464v4.284c.64.165 1.31.252 2 .252 1.458 0 2.824-.39 4.001-1.071l-6-3.465ZM8 12l-3.71 2.142a8.016 8.016 0 0 0 3.457 4.635L8 18.93V12Zm12 0-6 3.464 3.708 2.141a7.973 7.973 0 0 0 2.286-5.295L20 12Zm-8.01-2.316-2 1.168.01 2.315 2.01 1.149 2-1.168-.01-2.315-2.01-1.149ZM6.291 6.395A7.974 7.974 0 0 0 4 12l6-3.464-3.708-2.141ZM16 5.07V12l3.71-2.142A8.018 8.018 0 0 0 16 5.07ZM12 4c-1.458 0-2.824.39-4.001 1.071L14 8.536V4.252A8.015 8.015 0 0 0 12 4Z"/></g></svg>
